!! 00000] TT[00
!! NN
!!!OTL: Wo de gege dangle hongjun
!!!ARE: Asia, China, Shanxi Suide, Mizhi
!! Ethnic Group: Han
!! I, 45, 2)
!!!SCT: C0010
!!!YEM: Copyright 1995, estate of Helmut Schaffrath.
**kern
*ICvox
*Ivox
*M2/4
*k[b-]
*F:
{8g
16f
16e
8d
16d
16d
=1
8g
16a
16ee
[4dd
=2
2dd]
=3
8.cc
16a
8cc
16a
16g
=4
8f
4.d}
=5
{16g
16a
4f
8g
=6
4a
8dd
8cc
=7
8a
8f
16g
16a
8f
=8
2d}
=9
{8dd
8dd
8gg
16dd
16cc
=10
16a
16cc
16a
16g
8f
8d
=11
8dd
8dd
8gg
16dd
16cc
=12
2a}
=13
{8dd
8dd
8gg
16dd
16cc
=14
16a
16cc
16a
16g
8f
8d
=15
8g
8g
8cc
16a
16g
=16
16f
[8.d
4d]}
=17
{8g
16f
16e
8d
16d
16d
=18
8g
16a
16ee
[4dd
=19
2dd]
=20
8.cc
16a
8cc
16a
16g
=21
8f
4.d}
=22
{16g
16a
4f
8g
=23
4a
8dd
8cc
=24
8a
8f
16g
16a
8f
=25
2d}
==
!!!AGN: Shange, Xintianyou. Geming lishi minge
!! Neues Volkslied
!!    Eine Verzierung auf letzter Note.
!!!ONB: ESAC (Essen Associative Code) Database: CHINA
!!!AMT: simple duple
!!!AIN: vox
!!!EED: Helmut Schaffrath
!!!EEV: 1.0
*-
!!!ONB: Tied note syntax fixed by Craig Sapp, 2004/05/03/
